X:1
T:Sammy's Bar
M:3/4
L:1/8
K:A
 EE| A3 Ac c| A4 E3/2 E/2| F4 D3/2 A/2| F E3 EE| F3 EF F| A,4 A,B,|\
 C3 A, B,2| A,4 z2|
